icons/file-code-line.svg

<svg xmlns="http://www.w3.org/2000/svg" width="24" height="24" fill="none"><g clip-path="url(#a)"><g><path fill="#121212" d="M15 4H5V20H19V8H15V4ZM3 2.992C3 2.444 3.447 2 3.999 2H16L21 7V20.993C21.0009 21.1243 20.976 21.2545 20.9266 21.3762C20.8772 21.4979 20.8043 21.6087 20.7121 21.7022C20.6199 21.7957 20.5101 21.8701 20.3892 21.9212C20.2682 21.9723 20.1383 21.9991 20.007 22H3.993C3.73038 21.9982 3.47902 21.8931 3.29322 21.7075C3.10742 21.5219 3.00209 21.2706 3 21.008V2.992ZM17.657 12L14.121 15.536L12.707 14.121L14.828 12L12.708 9.879L14.121 8.464L17.657 12ZM6.343 12L9.88 8.464L11.294 9.879L9.172 12L11.292 14.121L9.879 15.536L6.343 12Z"/></g></g><defs><clipPath id="a"><rect width="24" height="24" fill="white"/></clipPath></defs></svg>

<svg width="24" height="24" fill="none" xmlns="http://www.w3.org/2000/svg"><g clip-path="url(#a)"><path d="M15 4H5v16h14V8h-4V4ZM3 2.992C3 2.444 3.447 2 3.999 2H16l5 5v13.993A1 1 0 0 1 20.007 22H3.993A1 1 0 0 1 3 21.008V2.992ZM17.657 12l-3.536 3.536-1.414-1.415L14.828 12l-2.12-2.121 1.413-1.415L17.657 12ZM6.343 12 9.88 8.464l1.414 1.415L9.172 12l2.12 2.121-1.413 1.415L6.343 12Z" /></g><defs><clipPath id="a"><path fill="#fff" d="M0 0h24v24H0z"/></clipPath></defs></svg>
